X: 6
T: The Humours Of Kinvara
R: reel
M: 4/4
L: 1/8
K: Gmaj
AD~D2 ADBD | AD~D2 ADcA | BG~G2 BGdG |1 Bdde d2 cB :|2Bdde d2cA||
Geed cBAG | ceed ~c3d | ~e3d efge |1 dBGB d2 cA :|2 dBGB d2 cB ||


Tune 294	Setting 15531

